X:3
T:The Rose of Raby
I:last changed 14/2/2016
F:http://www.campin.me.uk/Music/Edinbal.abc
C:Dave Shepherd
M:3/4
L:1/8
K:AMin
AB|"Am"c2 cAce|"G" B4    Bc|    (3dcB cd        ef |"Dm"ed cBAB|
   "F" c2 cAce|"G" B4    Bc|"Em"(3dcB ed        cB |"Am"A4    :|
AB|"Am"c2 AcAc|"Dm"d2 d2 ed|"Am"  cE  Ac        ec |"Dm"d4
cd|"C" ed cedc|"G" dc Bd cB|"Am"  c2  AB        cd |"Em"B3 G
AB|"Am"c2 cAce|"G" B4    GB|"Dm"  d2  de      (3fed|"C" e2 ecAc|
   "Am"cE Aced|"Em"B2 GB dc|"Am/F"A2  A2 "(G)"(3BAG|"Am"A4    :|

